X:1
T: The Lass of Gowrie
C:
R:Reel
Q: 232
K:Bb
M:4/4
L:1/8
|:FE|D2 D2 F2 GA|B3c B2 F2|G3F GA B2|c3d c2 FE|
D2 F2 F2 GA|B3c d3c|BA GF B2 d2|c4 B2:|
|:fe|d2 f2 B3c|dc de f2 ed|e2 g2 c3d|ed ef g2 fe|
d2 f2 c2 d2|B3c d3c|BA GF B2 d2|c4 B2:|
